snowmobile.svg

<svg fill="currentColor" viewBox="0 0 24 24"><path d="M20.34 17.93 18.4 16c1.1-.09 4.26-.47 4.57-2.64a.92.92 0 0 0-.19-.66c-.66-.88-2.9-3.63-7.78-7.7h-3v2h2l2 2-4 2-9-1-2 3 4.58 1.38-3 1.71c-.36.17-1.58.8-1.58 1.96 0 .35 0 .84.33 1.27.5.68 1.38.68 1.67.68h6c1.26 0 3.53-.87 3.93-4h2.66l2 2H15v2h5c1.65 0 3-1.35 3-3h-2c0 .43-.27.79-.66.93M9 18H3.25c.08-.05.16-.09.25-.13l4.72-2.7 2.7.83c-.34 1.84-1.64 2-1.92 2"/></svg>

<svg  viewBox="0 0 24 24" fill="currentColor"><path  d="M20.34 17.93L18.4 16C19.5 15.91 22.66 15.53 22.97 13.36C23 13.12 22.92 12.89 22.78 12.7C22.12 11.82 19.88 9.07 15 5H12V7H14L16 9L12 11L3 10L1 13L5.58 14.38L2.58 16.09C2.22 16.26 1 16.89 1 18.05C1 18.4 1 18.89 1.33 19.32C1.83 20 2.71 20 3 20H9C10.26 20 12.53 19.13 12.93 16H15.59L17.59 18H15V20H20C21.65 20 23 18.65 23 17H21C21 17.43 20.73 17.79 20.34 17.93M9 18H3.25C3.33 17.95 3.41 17.91 3.5 17.87L8.22 15.17L10.92 16C10.58 17.84 9.28 18 9 18Z"/></svg>
